papirus/22x22/apps/transmission.svg

<svg height="22" width="22" xmlns="http://www.w3.org/2000/svg"><g transform="translate(-1 -1)"><rect fill="#c2352a" height="18" rx="1" transform="matrix(0 -1 -1 0 0 0)" width="20" x="-22" y="-21"/><path d="m4 2c-.554 0-1 .446-1 1v .5c0-.554.446-1 1-1h16c .554 0 1 .446 1 1v-.5c0-.554-.446-1-1-1z" fill="#fff" opacity=".1"/><rect fill="#ebebeb" height="16" rx="0" ry=".51612902" width="14" x="5" y="4"/><path d="m12 17l-3-3h2v-4h-2l3-3 3 3h-2v4h2z" fill="#3f3f3f" fill-rule="evenodd"/><path d="m3 20.5v.5c0 .554.446 1 1 1h16c .554 0 1-.446 1-1v-.5c0 .554-.446 1-1 1h-16c-.554 0-1-.446-1-1z" opacity=".3"/><path d="m5 5v-.5c0-.277.223-.5.5-.5h13c .277 0 .5.223.5.5v.5c0-.277-.223-.5-.5-.5h-13c-.277 0-.5.223-.5.5z" fill="#fff" opacity=".2"/></g></svg>

<?xml version="1.0" encoding="UTF-8" standalone="no"?>
<!-- Created with Inkscape (http://www.inkscape.org/) -->

<svg
   xmlns:dc="http://purl.org/dc/elements/1.1/"
   xmlns:cc="http://creativecommons.org/ns#"
   xmlns:rdf="http://www.w3.org/1999/02/22-rdf-syntax-ns#"
   xmlns:svg="http://www.w3.org/2000/svg"
   xmlns="http://www.w3.org/2000/svg"
   xmlns:sodipodi="http://sodipodi.sourceforge.net/DTD/sodipodi-0.dtd"
   xmlns:inkscape="http://www.inkscape.org/namespaces/inkscape"
   id="svg2817"
   height="22"
   width="22"
   version="1.0"
   inkscape:version="0.91 r13725"
   sodipodi:docname="transmission.svg">
  <defs
     id="defs14" />
  <sodipodi:namedview
     pagecolor="#ffffff"
     bordercolor="#666666"
     borderopacity="1"
     objecttolerance="10"
     gridtolerance="10"
     guidetolerance="10"
     inkscape:pageopacity="0"
     inkscape:pageshadow="2"
     inkscape:window-width="1600"
     inkscape:window-height="849"
     id="namedview12"
     showgrid="false"
     inkscape:zoom="11.420324"
     inkscape:cx="-16.310519"
     inkscape:cy="9.9619678"
     inkscape:window-x="0"
     inkscape:window-y="0"
     inkscape:window-maximized="1"
     inkscape:current-layer="svg2817" />
  <metadata
     id="metadata57">
    <rdf:RDF>
      <cc:Work
         rdf:about="">
        <dc:format>image/svg+xml</dc:format>
        <dc:type
           rdf:resource="http://purl.org/dc/dcmitype/StillImage" />
        <dc:title></dc:title>
      </cc:Work>
    </rdf:RDF>
  </metadata>
  <g
     id="g4138"
     transform="translate(-1,-1)">
    <rect
       id="rect4203"
       transform="matrix(0,-1,-1,0,0,0)"
       rx="1"
       ry="1"
       height="18"
       width="20"
       y="-21"
       x="-22"
       style="fill:#c2352a" />
    <path
       id="rect4592"
       d="M 4,2 C 3.446,2 3,2.446 3,3 l 0,0.5 c 0,-0.554 0.446,-1 1,-1 l 16,0 c 0.554,0 1,0.446 1,1 L 21,3 C 21,2.446 20.554,2 20,2 Z"
       inkscape:connector-curvature="0"
       style="opacity:0.1;fill:#ffffff" />
    <rect
       id="rect4406"
       rx="0"
       ry="0.51612902"
       height="16"
       width="14"
       y="4"
       x="5"
       style="fill:#ebebeb" />
    <path
       sodipodi:nodetypes="ccccccccccc"
       id="path4384"
       d="m 12,17 -3,-3 2,0 0,-4 -2,0 3,-3 3,3 -2,0 0,4 2,0 z"
       inkscape:connector-curvature="0"
       style="fill:#3f3f3f;fill-rule:evenodd" />
    <path
       id="rect4415"
       d="M 3,20.5 3,21 c 0,0.554 0.446,1 1,1 l 16,0 c 0.554,0 1,-0.446 1,-1 l 0,-0.5 c 0,0.554 -0.446,1 -1,1 l -16,0 c -0.554,0 -1,-0.446 -1,-1 z"
       inkscape:connector-curvature="0"
       style="opacity:0.3" />
    <path
       id="path4429"
       d="M 5,5 5,4.5 C 5,4.223 5.223,4 5.5,4 l 13,0 C 18.777,4 19,4.223 19,4.5 L 19,5 C 19,4.723 18.777,4.5 18.5,4.5 l -13,0 C 5.223,4.5 5,4.723 5,5 Z"
       inkscape:connector-curvature="0"
       style="opacity:0.2;fill:#ffffff" />
  </g>
</svg>
